src/lib/packages/icons/src/assets/line/chart-bar-vertical.svg

<svg width="24" height="24" viewBox="0 0 24 24" fill="none" xmlns="http://www.w3.org/2000/svg">
<path d="M21.75 20C21.75 20.414 21.414 20.75 21 20.75H4.5C3.091 20.75 2.25 19.909 2.25 18.5V4C2.25 3.586 2.586 3.25 3 3.25C3.414 3.25 3.75 3.586 3.75 4V18.5C3.75 19.089 3.911 19.25 4.5 19.25H21C21.414 19.25 21.75 19.586 21.75 20ZM7 16.75C7.414 16.75 7.75 16.414 7.75 16V13C7.75 12.586 7.414 12.25 7 12.25C6.586 12.25 6.25 12.586 6.25 13V16C6.25 16.414 6.586 16.75 7 16.75ZM11 16.75C11.414 16.75 11.75 16.414 11.75 16V9C11.75 8.586 11.414 8.25 11 8.25C10.586 8.25 10.25 8.586 10.25 9V16C10.25 16.414 10.586 16.75 11 16.75ZM15 16.75C15.414 16.75 15.75 16.414 15.75 16V11C15.75 10.586 15.414 10.25 15 10.25C14.586 10.25 14.25 10.586 14.25 11V16C14.25 16.414 14.586 16.75 15 16.75ZM19 16.75C19.414 16.75 19.75 16.414 19.75 16V5C19.75 4.586 19.414 4.25 19 4.25C18.586 4.25 18.25 4.586 18.25 5V16C18.25 16.414 18.586 16.75 19 16.75Z" fill="currentColor"/>
</svg>

<svg xmlns="http://www.w3.org/2000/svg" width="24" height="24" fill="none"><path fill="currentColor" d="M21.75 20a.75.75 0 0 1-.75.75H4.5c-1.409 0-2.25-.841-2.25-2.25V4a.75.75 0 0 1 1.5 0v14.5c0 .589.161.75.75.75H21a.75.75 0 0 1 .75.75ZM7 16.75a.75.75 0 0 0 .75-.75v-3a.75.75 0 0 0-1.5 0v3c0 .414.336.75.75.75Zm4 0a.75.75 0 0 0 .75-.75V9a.75.75 0 0 0-1.5 0v7c0 .414.336.75.75.75Zm4 0a.75.75 0 0 0 .75-.75v-5a.75.75 0 0 0-1.5 0v5c0 .414.336.75.75.75Zm4 0a.75.75 0 0 0 .75-.75V5a.75.75 0 0 0-1.5 0v11c0 .414.336.75.75.75Z"/></svg>
